dist/images/AndyCatch-Outline.svg

<svg width="1377" height="143" viewBox="0 0 1377 143" fill="none" xmlns="http://www.w3.org/2000/svg">
<mask id="path-1-inside-1_2051_318" fill="white">
<path d="M56.3056 95.3529C44.8808 90.0799 39.3882 84.3675 38.0699 76.8975H59.6012L62.8968 82.3902C64.4348 85.0267 65.3136 87.4434 65.3136 90.2996C65.3136 93.1558 63.9954 95.3529 60.6998 95.3529V140.613H147.264V93.1558C144.628 92.277 142.211 90.0799 137.817 82.3902L124.635 59.7603C123.316 57.5633 122.877 55.1465 122.877 50.0932V2.19707H14.5613V49.4341H33.0167C36.7517 49.4341 39.3882 52.0706 39.3882 55.3662C39.3882 58.4421 37.6305 61.2983 35.6531 63.9348C22.6904 81.2916 9.28829 90.5193 0.5 93.1558V140.613H56.3056V95.3529ZM37.8502 73.6019C37.8502 67.6698 38.9487 63.9348 40.7064 60.8589L45.1006 52.7297L58.283 74.7004H37.8502C37.8502 74.261 37.8502 74.0413 37.8502 73.6019Z"/>
<path d="M211.524 93.1558C185.159 80.1931 169.779 68.1092 168.241 52.2903L208.228 78.2157C214.38 82.1705 215.918 86.1252 215.918 93.1558V140.613H291.058V73.1625C291.058 56.245 294.793 50.0932 302.482 49.2144V2.19707H245.578V49.4341C263.374 54.048 288.201 72.5034 288.86 88.1026V89.6405H288.641L251.071 64.3742C242.942 58.8815 241.184 58.0027 241.184 49.2144V2.19707H151.763V49.4341C166.044 49.4341 165.824 50.0932 165.824 62.1771V66.5713C165.824 82.6099 161.87 91.8376 151.763 93.1558V140.613H211.524V93.1558Z"/>
<path d="M384.884 49.4341C396.968 49.4341 400.484 53.3888 400.484 71.4048C400.484 90.5193 392.135 93.1558 383.786 93.1558H380.49V49.4341H384.884ZM389.718 140.613C443.766 140.613 463.54 118.202 463.54 71.4048C463.54 26.5846 442.448 2.19707 385.104 2.19707H306.888V49.4341C321.169 49.4341 320.95 50.0932 320.95 62.3968V80.1931C320.95 92.4967 321.169 93.1558 306.888 93.1558V140.613H389.718Z"/>
<path d="M582.571 140.613V93.1558C568.51 93.1558 568.51 92.4967 568.51 79.7537C583.011 65.6924 604.102 52.7297 609.156 49.4341V2.19707H559.722V49.4341C567.851 50.7524 575.76 56.0253 575.76 63.4954C575.76 67.8895 573.124 73.1625 566.533 78.6552L548.297 62.3968C546.1 60.4195 545.001 58.2224 545.001 56.245C545.001 52.51 548.736 49.4341 555.327 49.4341V2.19707H464.588V49.4341C468.763 49.8735 472.937 52.0706 479.528 59.3209L497.984 79.534C497.984 92.4967 498.204 93.1558 483.923 93.1558V140.613H582.571Z"/>
<path d="M726.066 54.7071C730.679 54.7071 735.513 58.0027 736.392 66.791H792.857V2.19707H739.248V62.6165H737.051C732.657 10.7656 723.869 0 699.481 0C667.404 0 654.661 25.9254 654.661 72.2836C654.661 129.408 688.496 142.81 725.407 142.81C779.674 142.81 795.273 113.149 792.857 68.988H790.66C790.66 80.6325 788.682 84.1478 749.794 84.1478C721.452 84.1478 717.277 77.5566 717.277 65.6924C717.277 58.6618 719.914 54.7071 726.066 54.7071Z"/>
<path d="M851.242 95.3529C839.817 90.0799 834.325 84.3675 833.006 76.8975H854.538L857.833 82.3902C859.371 85.0267 860.25 87.4434 860.25 90.2996C860.25 93.1558 858.932 95.3529 855.636 95.3529V140.613H942.201V93.1558C939.564 92.277 937.148 90.0799 932.753 82.3902L919.571 59.7603C918.253 57.5633 917.813 55.1465 917.813 50.0932V2.19707H809.498V49.4341H827.953C831.688 49.4341 834.325 52.0706 834.325 55.3662C834.325 58.4421 832.567 61.2983 830.59 63.9348C817.627 81.2916 804.225 90.5193 795.436 93.1558V140.613H851.242V95.3529ZM832.787 73.6019C832.787 67.6698 833.885 63.9348 835.643 60.8589L840.037 52.7297L853.219 74.7004H832.787C832.787 74.261 832.787 74.0413 832.787 73.6019Z"/>
<path d="M1063.4 2.19707H935.972V74.7004H938.169V65.4727C938.169 55.1465 944.101 50.0932 964.314 49.4341V80.1931C964.314 92.4967 964.534 93.1558 947.177 93.1558V140.613H1052.42V93.1558C1034.62 93.1558 1034.84 92.4967 1034.84 80.1931V49.4341C1055.05 50.0932 1061.2 55.1465 1061.2 65.4727V74.7004H1063.4V2.19707Z"/>
<path d="M1138.02 54.7071C1142.63 54.7071 1147.46 58.0027 1148.34 66.791H1204.81V2.19707H1151.2V62.6165H1149C1144.61 10.7656 1135.82 0 1111.43 0C1079.35 0 1066.61 25.9254 1066.61 72.2836C1066.61 129.408 1100.45 142.81 1137.36 142.81C1191.63 142.81 1207.22 113.149 1204.81 68.988H1202.61C1202.61 80.6325 1200.63 84.1478 1161.74 84.1478C1133.4 84.1478 1129.23 77.5566 1129.23 65.6924C1129.23 58.6618 1131.86 54.7071 1138.02 54.7071Z"/>
<path d="M1302.9 80.1931C1302.9 92.4967 1303.12 93.1558 1295.43 93.1558V140.613H1376.5V93.1558C1362.22 93.1558 1362.44 92.4967 1362.44 80.1931V62.3968C1362.44 50.0932 1362.22 49.4341 1376.5 49.4341V2.19707H1295.43V49.4341C1303.12 49.4341 1302.9 50.0932 1302.9 62.3968V69.2077H1283.56V62.3968C1283.56 50.0932 1283.34 49.4341 1291.03 49.4341V2.19707H1209.96V49.4341C1224.24 49.4341 1224.02 50.0932 1224.02 62.3968V80.1931C1224.02 92.4967 1224.24 93.1558 1209.96 93.1558V140.613H1291.03V93.1558C1283.34 93.1558 1283.56 92.4967 1283.56 80.1931V71.4048H1302.9V80.1931Z"/>
</mask>
<path d="M56.3056 95.3529C44.8808 90.0799 39.3882 84.3675 38.0699 76.8975H59.6012L62.8968 82.3902C64.4348 85.0267 65.3136 87.4434 65.3136 90.2996C65.3136 93.1558 63.9954 95.3529 60.6998 95.3529V140.613H147.264V93.1558C144.628 92.277 142.211 90.0799 137.817 82.3902L124.635 59.7603C123.316 57.5633 122.877 55.1465 122.877 50.0932V2.19707H14.5613V49.4341H33.0167C36.7517 49.4341 39.3882 52.0706 39.3882 55.3662C39.3882 58.4421 37.6305 61.2983 35.6531 63.9348C22.6904 81.2916 9.28829 90.5193 0.5 93.1558V140.613H56.3056V95.3529ZM37.8502 73.6019C37.8502 67.6698 38.9487 63.9348 40.7064 60.8589L45.1006 52.7297L58.283 74.7004H37.8502C37.8502 74.261 37.8502 74.0413 37.8502 73.6019Z" stroke="#F0FFF0" stroke-width="4" mask="url(#path-1-inside-1_2051_318)"/>
<path d="M211.524 93.1558C185.159 80.1931 169.779 68.1092 168.241 52.2903L208.228 78.2157C214.38 82.1705 215.918 86.1252 215.918 93.1558V140.613H291.058V73.1625C291.058 56.245 294.793 50.0932 302.482 49.2144V2.19707H245.578V49.4341C263.374 54.048 288.201 72.5034 288.86 88.1026V89.6405H288.641L251.071 64.3742C242.942 58.8815 241.184 58.0027 241.184 49.2144V2.19707H151.763V49.4341C166.044 49.4341 165.824 50.0932 165.824 62.1771V66.5713C165.824 82.6099 161.87 91.8376 151.763 93.1558V140.613H211.524V93.1558Z" stroke="#F0FFF0" stroke-width="4" mask="url(#path-1-inside-1_2051_318)"/>
<path d="M384.884 49.4341C396.968 49.4341 400.484 53.3888 400.484 71.4048C400.484 90.5193 392.135 93.1558 383.786 93.1558H380.49V49.4341H384.884ZM389.718 140.613C443.766 140.613 463.54 118.202 463.54 71.4048C463.54 26.5846 442.448 2.19707 385.104 2.19707H306.888V49.4341C321.169 49.4341 320.95 50.0932 320.95 62.3968V80.1931C320.95 92.4967 321.169 93.1558 306.888 93.1558V140.613H389.718Z" stroke="#F0FFF0" stroke-width="4" mask="url(#path-1-inside-1_2051_318)"/>
<path d="M582.571 140.613V93.1558C568.51 93.1558 568.51 92.4967 568.51 79.7537C583.011 65.6924 604.102 52.7297 609.156 49.4341V2.19707H559.722V49.4341C567.851 50.7524 575.76 56.0253 575.76 63.4954C575.76 67.8895 573.124 73.1625 566.533 78.6552L548.297 62.3968C546.1 60.4195 545.001 58.2224 545.001 56.245C545.001 52.51 548.736 49.4341 555.327 49.4341V2.19707H464.588V49.4341C468.763 49.8735 472.937 52.0706 479.528 59.3209L497.984 79.534C497.984 92.4967 498.204 93.1558 483.923 93.1558V140.613H582.571Z" stroke="#F0FFF0" stroke-width="4" mask="url(#path-1-inside-1_2051_318)"/>
<path d="M726.066 54.7071C730.679 54.7071 735.513 58.0027 736.392 66.791H792.857V2.19707H739.248V62.6165H737.051C732.657 10.7656 723.869 0 699.481 0C667.404 0 654.661 25.9254 654.661 72.2836C654.661 129.408 688.496 142.81 725.407 142.81C779.674 142.81 795.273 113.149 792.857 68.988H790.66C790.66 80.6325 788.682 84.1478 749.794 84.1478C721.452 84.1478 717.277 77.5566 717.277 65.6924C717.277 58.6618 719.914 54.7071 726.066 54.7071Z" stroke="#F0FFF0" stroke-width="4" mask="url(#path-1-inside-1_2051_318)"/>
<path d="M851.242 95.3529C839.817 90.0799 834.325 84.3675 833.006 76.8975H854.538L857.833 82.3902C859.371 85.0267 860.25 87.4434 860.25 90.2996C860.25 93.1558 858.932 95.3529 855.636 95.3529V140.613H942.201V93.1558C939.564 92.277 937.148 90.0799 932.753 82.3902L919.571 59.7603C918.253 57.5633 917.813 55.1465 917.813 50.0932V2.19707H809.498V49.4341H827.953C831.688 49.4341 834.325 52.0706 834.325 55.3662C834.325 58.4421 832.567 61.2983 830.59 63.9348C817.627 81.2916 804.225 90.5193 795.436 93.1558V140.613H851.242V95.3529ZM832.787 73.6019C832.787 67.6698 833.885 63.9348 835.643 60.8589L840.037 52.7297L853.219 74.7004H832.787C832.787 74.261 832.787 74.0413 832.787 73.6019Z" stroke="#F0FFF0" stroke-width="4" mask="url(#path-1-inside-1_2051_318)"/>
<path d="M1063.4 2.19707H935.972V74.7004H938.169V65.4727C938.169 55.1465 944.101 50.0932 964.314 49.4341V80.1931C964.314 92.4967 964.534 93.1558 947.177 93.1558V140.613H1052.42V93.1558C1034.62 93.1558 1034.84 92.4967 1034.84 80.1931V49.4341C1055.05 50.0932 1061.2 55.1465 1061.2 65.4727V74.7004H1063.4V2.19707Z" stroke="#F0FFF0" stroke-width="4" mask="url(#path-1-inside-1_2051_318)"/>
<path d="M1138.02 54.7071C1142.63 54.7071 1147.46 58.0027 1148.34 66.791H1204.81V2.19707H1151.2V62.6165H1149C1144.61 10.7656 1135.82 0 1111.43 0C1079.35 0 1066.61 25.9254 1066.61 72.2836C1066.61 129.408 1100.45 142.81 1137.36 142.81C1191.63 142.81 1207.22 113.149 1204.81 68.988H1202.61C1202.61 80.6325 1200.63 84.1478 1161.74 84.1478C1133.4 84.1478 1129.23 77.5566 1129.23 65.6924C1129.23 58.6618 1131.86 54.7071 1138.02 54.7071Z" stroke="#F0FFF0" stroke-width="4" mask="url(#path-1-inside-1_2051_318)"/>
<path d="M1302.9 80.1931C1302.9 92.4967 1303.12 93.1558 1295.43 93.1558V140.613H1376.5V93.1558C1362.22 93.1558 1362.44 92.4967 1362.44 80.1931V62.3968C1362.44 50.0932 1362.22 49.4341 1376.5 49.4341V2.19707H1295.43V49.4341C1303.12 49.4341 1302.9 50.0932 1302.9 62.3968V69.2077H1283.56V62.3968C1283.56 50.0932 1283.34 49.4341 1291.03 49.4341V2.19707H1209.96V49.4341C1224.24 49.4341 1224.02 50.0932 1224.02 62.3968V80.1931C1224.02 92.4967 1224.24 93.1558 1209.96 93.1558V140.613H1291.03V93.1558C1283.34 93.1558 1283.56 92.4967 1283.56 80.1931V71.4048H1302.9V80.1931Z" stroke="#F0FFF0" stroke-width="4" mask="url(#path-1-inside-1_2051_318)"/>
</svg>

<svg width="1377" height="143" fill="none" xmlns="http://www.w3.org/2000/svg"><mask id="a" fill="#fff"><path d="M56.306 95.353C44.88 90.08 39.388 84.368 38.07 76.897H59.6l3.296 5.493c1.538 2.637 2.417 5.053 2.417 7.91 0 2.856-1.319 5.053-4.614 5.053v45.26h86.564V93.156c-2.636-.879-5.053-3.076-9.447-10.766l-13.182-22.63c-1.319-2.197-1.758-4.613-1.758-9.667V2.197H14.561v47.237h18.456c3.735 0 6.371 2.637 6.371 5.932 0 3.076-1.758 5.932-3.735 8.569C22.69 81.292 9.288 90.519.5 93.155v47.458h55.806v-45.26zM37.85 73.602c0-5.932 1.099-9.667 2.856-12.743l4.395-8.13L58.283 74.7H37.85v-1.098zm173.674 19.554c-26.365-12.963-41.745-25.047-43.283-40.866l39.987 25.926c6.152 3.955 7.69 7.91 7.69 14.94v47.457h75.14v-67.45c0-16.918 3.735-23.07 11.424-23.949V2.197h-56.904v47.237c17.796 4.614 42.623 23.07 43.282 38.669v1.538h-.219l-37.57-25.267c-8.129-5.492-9.887-6.371-9.887-15.16V2.197h-89.421v47.237c14.281 0 14.061.66 14.061 12.743v4.394c0 16.039-3.954 25.267-14.061 26.585v47.457h59.761V93.156zm173.36-43.722c12.084 0 15.6 3.955 15.6 21.97 0 19.115-8.349 21.752-16.698 21.752h-3.296V49.434h4.394zm4.834 91.179c54.048 0 73.822-22.411 73.822-69.208 0-44.82-21.092-69.208-78.436-69.208h-78.216v47.237c14.281 0 14.062.66 14.062 12.963v17.796c0 12.304.219 12.963-14.062 12.963v47.457h82.83zm192.853 0V93.156c-14.061 0-14.061-.66-14.061-13.402 14.501-14.062 35.592-27.024 40.646-30.32V2.197h-49.434v47.237c8.129 1.318 16.038 6.591 16.038 14.061 0 4.395-2.636 9.667-9.227 15.16l-18.236-16.258c-2.197-1.977-3.296-4.175-3.296-6.152 0-3.735 3.735-6.81 10.326-6.81V2.196h-90.739v47.237c4.175.44 8.349 2.637 14.94 9.887l18.456 20.213c0 12.963.22 13.622-14.061 13.622v47.457h98.648zm143.495-85.906c4.613 0 9.447 3.296 10.326 12.084h56.465V2.197h-53.609v60.42h-2.197C732.657 10.766 723.869 0 699.481 0c-32.077 0-44.82 25.925-44.82 72.284 0 57.124 33.835 70.526 70.746 70.526 54.267 0 69.866-29.661 67.45-73.822h-2.197c0 11.644-1.978 15.16-40.866 15.16-28.342 0-32.517-6.591-32.517-18.456 0-7.03 2.637-10.985 8.789-10.985zm125.176 40.646c-11.425-5.273-16.917-10.985-18.236-18.456h21.532l3.295 5.493c1.538 2.637 2.417 5.053 2.417 7.91 0 2.856-1.318 5.053-4.614 5.053v45.26h86.565V93.156c-2.637-.879-5.053-3.076-9.448-10.766l-13.182-22.63c-1.318-2.197-1.758-4.613-1.758-9.667V2.197H809.498v47.237h18.455c3.735 0 6.372 2.637 6.372 5.932 0 3.076-1.758 5.932-3.735 8.569-12.963 17.357-26.365 26.584-35.154 29.22v47.458h55.806v-45.26zm-18.455-21.751c0-5.932 1.098-9.667 2.856-12.743l4.394-8.13L853.219 74.7h-20.432v-1.098z"/><path d="M1063.4 2.197H935.972V74.7h2.197v-9.227c0-10.326 5.932-15.38 26.145-16.039v30.76c0 12.303.22 12.962-17.137 12.962v47.457h105.243V93.156c-17.8 0-17.58-.66-17.58-12.963V49.434c20.21.66 26.36 5.713 26.36 16.039V74.7h2.2V2.197zm74.62 52.51c4.61 0 9.44 3.296 10.32 12.084h56.47V2.197h-53.61v60.42h-2.2C1144.61 10.766 1135.82 0 1111.43 0c-32.08 0-44.82 25.925-44.82 72.284 0 57.124 33.84 70.526 70.75 70.526 54.27 0 69.86-29.661 67.45-73.822h-2.2c0 11.644-1.98 15.16-40.87 15.16-28.34 0-32.51-6.591-32.51-18.456 0-7.03 2.63-10.985 8.79-10.985zm164.88 25.486c0 12.304.22 12.963-7.47 12.963v47.457h81.07V93.156c-14.28 0-14.06-.66-14.06-12.963V62.397c0-12.304-.22-12.963 14.06-12.963V2.197h-81.07v47.237c7.69 0 7.47.66 7.47 12.963v6.81h-19.34v-6.81c0-12.304-.22-12.963 7.47-12.963V2.197h-81.07v47.237c14.28 0 14.06.66 14.06 12.963v17.796c0 12.304.22 12.963-14.06 12.963v47.457h81.07V93.156c-7.69 0-7.47-.66-7.47-12.963v-8.788h19.34v8.788z"/></mask><path d="M56.306 95.353C44.88 90.08 39.388 84.368 38.07 76.897H59.6l3.296 5.493c1.538 2.637 2.417 5.053 2.417 7.91 0 2.856-1.319 5.053-4.614 5.053v45.26h86.564V93.156c-2.636-.879-5.053-3.076-9.447-10.766l-13.182-22.63c-1.319-2.197-1.758-4.613-1.758-9.667V2.197H14.561v47.237h18.456c3.735 0 6.371 2.637 6.371 5.932 0 3.076-1.758 5.932-3.735 8.569C22.69 81.292 9.288 90.519.5 93.155v47.458h55.806v-45.26zM37.85 73.602c0-5.932 1.099-9.667 2.856-12.743l4.395-8.13L58.283 74.7H37.85v-1.098zm173.674 19.554c-26.365-12.963-41.745-25.047-43.283-40.866l39.987 25.926c6.152 3.955 7.69 7.91 7.69 14.94v47.457h75.14v-67.45c0-16.918 3.735-23.07 11.424-23.949V2.197h-56.904v47.237c17.796 4.614 42.623 23.07 43.282 38.669v1.538h-.219l-37.57-25.267c-8.129-5.492-9.887-6.371-9.887-15.16V2.197h-89.421v47.237c14.281 0 14.061.66 14.061 12.743v4.394c0 16.039-3.954 25.267-14.061 26.585v47.457h59.761V93.156zm173.36-43.722c12.084 0 15.6 3.955 15.6 21.97 0 19.115-8.349 21.752-16.698 21.752h-3.296V49.434h4.394zm4.834 91.179c54.048 0 73.822-22.411 73.822-69.208 0-44.82-21.092-69.208-78.436-69.208h-78.216v47.237c14.281 0 14.062.66 14.062 12.963v17.796c0 12.304.219 12.963-14.062 12.963v47.457h82.83zm192.853 0V93.156c-14.061 0-14.061-.66-14.061-13.402 14.501-14.062 35.592-27.024 40.646-30.32V2.197h-49.434v47.237c8.129 1.318 16.038 6.591 16.038 14.061 0 4.395-2.636 9.667-9.227 15.16l-18.236-16.258c-2.197-1.977-3.296-4.175-3.296-6.152 0-3.735 3.735-6.81 10.326-6.81V2.196h-90.739v47.237c4.175.44 8.349 2.637 14.94 9.887l18.456 20.213c0 12.963.22 13.622-14.061 13.622v47.457h98.648zm143.495-85.906c4.613 0 9.447 3.296 10.326 12.084h56.465V2.197h-53.609v60.42h-2.197C732.657 10.766 723.869 0 699.481 0c-32.077 0-44.82 25.925-44.82 72.284 0 57.124 33.835 70.526 70.746 70.526 54.267 0 69.866-29.661 67.45-73.822h-2.197c0 11.644-1.978 15.16-40.866 15.16-28.342 0-32.517-6.591-32.517-18.456 0-7.03 2.637-10.985 8.789-10.985zm125.176 40.646c-11.425-5.273-16.917-10.985-18.236-18.456h21.532l3.295 5.493c1.538 2.637 2.417 5.053 2.417 7.91 0 2.856-1.318 5.053-4.614 5.053v45.26h86.565V93.156c-2.637-.879-5.053-3.076-9.448-10.766l-13.182-22.63c-1.318-2.197-1.758-4.613-1.758-9.667V2.197H809.498v47.237h18.455c3.735 0 6.372 2.637 6.372 5.932 0 3.076-1.758 5.932-3.735 8.569-12.963 17.357-26.365 26.584-35.154 29.22v47.458h55.806v-45.26zm-18.455-21.751c0-5.932 1.098-9.667 2.856-12.743l4.394-8.13L853.219 74.7h-20.432v-1.098z" stroke="#F0FFF0" stroke-width="4" mask="url(#a)"/><path d="M1063.4 2.197H935.972V74.7h2.197v-9.227c0-10.326 5.932-15.38 26.145-16.039v30.76c0 12.303.22 12.962-17.137 12.962v47.457h105.243V93.156c-17.8 0-17.58-.66-17.58-12.963V49.434c20.21.66 26.36 5.713 26.36 16.039V74.7h2.2V2.197zm74.62 52.51c4.61 0 9.44 3.296 10.32 12.084h56.47V2.197h-53.61v60.42h-2.2C1144.61 10.766 1135.82 0 1111.43 0c-32.08 0-44.82 25.925-44.82 72.284 0 57.124 33.84 70.526 70.75 70.526 54.27 0 69.86-29.661 67.45-73.822h-2.2c0 11.644-1.98 15.16-40.87 15.16-28.34 0-32.51-6.591-32.51-18.456 0-7.03 2.63-10.985 8.79-10.985zm164.88 25.486c0 12.304.22 12.963-7.47 12.963v47.457h81.07V93.156c-14.28 0-14.06-.66-14.06-12.963V62.397c0-12.304-.22-12.963 14.06-12.963V2.197h-81.07v47.237c7.69 0 7.47.66 7.47 12.963v6.81h-19.34v-6.81c0-12.304-.22-12.963 7.47-12.963V2.197h-81.07v47.237c14.28 0 14.06.66 14.06 12.963v17.796c0 12.304.22 12.963-14.06 12.963v47.457h81.07V93.156c-7.69 0-7.47-.66-7.47-12.963v-8.788h19.34v8.788z" stroke="#F0FFF0" stroke-width="4" mask="url(#a)"/></svg>
